!!!COM: Johanna Kinkel
!!!CNT: Deutsch
!!!TXO: Deutsch
!!!OTL: Sehnsucht Nach Griechenland
!!!LYR: Geibel
!!!OPR: Sechs Lieder
!!!OPS: Op. 6
!!!ONM: No. 1
!!!ENC: Ben Fuhrman
!!!YOR: Johanna Kinkel: Lieder, volume 1 Poetry by Geibel and Goethe
!!!YOR: Bryn Mawr, Fildegard Publishing CO, 2000
!!!ODT: 1837
!!NB: Only vocal melody encoded.
!!NB: First instance of melodic material only encoded.
!!created: 2/19/10 4:15PM
!!proofed and posted: 2/19/10 4:15PM
**kern	**silbe
*clef G2	*
*k[]	*
*M6/8	*
*MM[Lento]	*
{8a	{Ich
=1	=1
4a	bli-
8a	-cke
4a	in
8b	mein
=2	=2
4cc	Herz
8r	.
4cc	und
8cc	ich
=3	=3
4cc	bli-
8cc	-cke
4dd	in
8ee	die
=4	=4
4.ff	Welt,
8r	.
8a	bis
8a	vom
=5	=5
4.a	schwim-
4a	-men-
8b	-den
=6	=6
4.dd	Au-
4cc	-ge
8cc	dich
=7	=7
4.cc	Thra2-
4b	-ne
8a	mir
=8	=8
4.g#}	fa2llt!}
4r	.
8r	.
!! Rest to measure 12
=12	=12
{4.cc#	{Wohl
8cc#	leuch-
8b	-tet
8a	die
=13	=13
(4dd	Fer-
8dd#)	|
4ee	-ne
8ee	im
=14	=14
[4.ddn	gol-
8ddn]	|
8cc#	-de-
8b	-nen
=15	=15
(4.b#	Licht,
4cc#)	|
8a	doch
=16	=16
4.b-	ha2lt
4a	mich
8g	der
=17	=17
4.f	Nord,
8r	.
8f	ich
8f	er-
=18	=18
[4.cc	-rei-
8cc]	|
8dd	-che
8cc	sie
=19	=19
(8cc	nicht
4f)}	|}
4r	.
8r	.
=20	=20
{4a	{O,
8a	die
8b	Schran-
8b	-ken
8b	so
=21	=21
4.cc	eng,
4cc	und
8b-	die
=22	=22
4.a	Welt
4.cc	so
=23	=23
4.ff	weit,
8r	.
8a	und
8b	so
=24	=24
4.cc	flu2ch-
4b	-tig
8b	die
=25	=25
4.a}	Zeit.}
4r	.
8r	.
==	==
*-	*-
